Numix-White/48/apps/hp_logo.svg

<?xml version="1.0" encoding="UTF-8" standalone="no"?>
<svg
   xmlns:dc="http://purl.org/dc/elements/1.1/"
   xmlns:cc="http://creativecommons.org/ns#"
   xmlns:rdf="http://www.w3.org/1999/02/22-rdf-syntax-ns#"
   xmlns:svg="http://www.w3.org/2000/svg"
   xmlns="http://www.w3.org/2000/svg"
   xmlns:sodipodi="http://sodipodi.sourceforge.net/DTD/sodipodi-0.dtd"
   xmlns:inkscape="http://www.inkscape.org/namespaces/inkscape"
   viewBox="0 0 48 48"
   id="svg2"
   version="1.1"
   inkscape:version="0.91 r13725"
   sodipodi:docname="hp_logo.svg">
  <metadata
     id="metadata45">
    <rdf:RDF>
      <cc:Work
         rdf:about="">
        <dc:format>image/svg+xml</dc:format>
        <dc:type
           rdf:resource="http://purl.org/dc/dcmitype/StillImage" />
      </cc:Work>
    </rdf:RDF>
  </metadata>
  <sodipodi:namedview
     pagecolor="#ffffff"
     bordercolor="#666666"
     borderopacity="1"
     objecttolerance="10"
     gridtolerance="10"
     guidetolerance="10"
     inkscape:pageopacity="0"
     inkscape:pageshadow="2"
     inkscape:window-width="767"
     inkscape:window-height="480"
     id="namedview43"
     showgrid="false"
     inkscape:zoom="4.9166667"
     inkscape:cx="24"
     inkscape:cy="24"
     inkscape:window-x="57"
     inkscape:window-y="31"
     inkscape:window-maximized="0"
     inkscape:current-layer="g19" />
  <defs
     id="defs4">
    <linearGradient
       id="linearGradient3764"
       x1="1"
       x2="47"
       gradientUnits="userSpaceOnUse"
       gradientTransform="matrix(0,-1,1,0,-1.5e-6,47.999998)">
      <stop
         style="stop-color:#015093;stop-opacity:1"
         id="stop7" />
      <stop
         offset="1"
         style="stop-color:#015ca7;stop-opacity:1"
         id="stop9" />
    </linearGradient>
  </defs>
  <g
     id="g11">
    <path
       d="m 36.31 5 c 5.859 4.062 9.688 10.831 9.688 18.5 c 0 12.426 -10.07 22.5 -22.5 22.5 c -7.669 0 -14.438 -3.828 -18.5 -9.688 c 1.037 1.822 2.306 3.499 3.781 4.969 c 4.085 3.712 9.514 5.969 15.469 5.969 c 12.703 0 23 -10.298 23 -23 c 0 -5.954 -2.256 -11.384 -5.969 -15.469 c -1.469 -1.475 -3.147 -2.744 -4.969 -3.781 z m 4.969 3.781 c 3.854 4.113 6.219 9.637 6.219 15.719 c 0 12.703 -10.297 23 -23 23 c -6.081 0 -11.606 -2.364 -15.719 -6.219 c 4.16 4.144 9.883 6.719 16.219 6.719 c 12.703 0 23 -10.298 23 -23 c 0 -6.335 -2.575 -12.06 -6.719 -16.219 z"
       style="opacity:0.05"
       id="path13" />
    <path
       d="m 41.28 8.781 c 3.712 4.085 5.969 9.514 5.969 15.469 c 0 12.703 -10.297 23 -23 23 c -5.954 0 -11.384 -2.256 -15.469 -5.969 c 4.113 3.854 9.637 6.219 15.719 6.219 c 12.703 0 23 -10.298 23 -23 c 0 -6.081 -2.364 -11.606 -6.219 -15.719 z"
       style="opacity:0.1"
       id="path15" />
    <path
       d="m 31.25 2.375 c 8.615 3.154 14.75 11.417 14.75 21.13 c 0 12.426 -10.07 22.5 -22.5 22.5 c -9.708 0 -17.971 -6.135 -21.12 -14.75 a 23 23 0 0 0 44.875 -7 a 23 23 0 0 0 -16 -21.875 z"
       style="opacity:0.2"
       id="path17" />
  </g>
  <g
     id="g19">
    <path
       d="m 24 1 c 12.703 0 23 10.297 23 23 c 0 12.703 -10.297 23 -23 23 -12.703 0 -23 -10.297 -23 -23 0 -12.703 10.297 -23 23 -23 z"
       style="fill:#e6e6e6;fill-opacity:1"
       id="path21" />
    <path
       d="m 24 1 c -1.279 0 -2.53 0.11 -3.752 0.311 l -11.248 32.689 l 4.273 0 5.457 -16 2.96 0 -5.381 16 4.296 0 5.084 -14.898 c 0.74 -2.142 -0.425 -4.102 -2.588 -4.102 l -3.328 0 4.893 -13.984 c -0.222 -0.006 -0.443 -0.016 -0.666 -0.016 m 6.287 14 -10.834 31.549 c 1.355 0.272 2.752 0.419 4.182 0.441 l 4.486 -12.99 l 5.674 0 c 1.01 0 2.112 -0.813 2.457 -1.811 l 4.525 -13.09 c 0.74 -2.142 -0.426 -4.102 -2.592 -4.102 m -4.672 3 3.221 0 -4.469 13 -3.221 0 z"
       style="fill:#000;opacity:0.1;fill-opacity:1"
       id="path23" />
    <path
       d="m 23.314 1.018 c -1.547 0.045 -3.054 0.242 -4.51 0.578 l -10.805 31.404 l 4.273 0 5.457 -16 2.96 0 -5.381 16 4.296 0 5.084 -14.898 c 0.74 -2.142 -0.425 -4.102 -2.588 -4.102 l -3.328 0 z m 5.973 12.982 -11.08 32.26 c 1.325 0.344 2.697 0.566 4.104 0.668 l 4.811 -13.932 l 5.674 0 c 1.01 0 2.112 -0.813 2.457 -1.811 l 4.525 -13.09 c 0.74 -2.142 -0.426 -4.102 -2.592 -4.102 m -4.672 3 3.221 0 -4.469 13 -3.221 0 z"
       style="fill:#4a76ff;fill-opacity:1"
       id="path25" />
  </g>
  <g
     id="g27">
    <g
       id="g29">
      <g
         transform="translate(1,1)"
         id="g31">
        <g
           style="opacity:0.1"
           id="g33">
          <!-- color: #015ca7 -->
        </g>
      </g>
    </g>
  </g>
  <g
     id="g35">
    <g
       id="g37">
      <!-- color: #015ca7 -->
    </g>
  </g>
  <g
     id="g39">
    <path
       d="m 40.03 7.531 c 3.712 4.084 5.969 9.514 5.969 15.469 0 12.703 -10.297 23 -23 23 c -5.954 0 -11.384 -2.256 -15.469 -5.969 4.178 4.291 10.01 6.969 16.469 6.969 c 12.703 0 23 -10.298 23 -23 0 -6.462 -2.677 -12.291 -6.969 -16.469 z"
       style="opacity:0.1"
       id="path41" />
  </g>
</svg>

<?xml version="1.0" encoding="UTF-8" standalone="no"?>
<svg
   xmlns:dc="http://purl.org/dc/elements/1.1/"
   xmlns:cc="http://creativecommons.org/ns#"
   xmlns:rdf="http://www.w3.org/1999/02/22-rdf-syntax-ns#"
   xmlns:svg="http://www.w3.org/2000/svg"
   xmlns="http://www.w3.org/2000/svg"
   xmlns:sodipodi="http://sodipodi.sourceforge.net/DTD/sodipodi-0.dtd"
   xmlns:inkscape="http://www.inkscape.org/namespaces/inkscape"
   viewBox="0 0 48 48"
   id="svg2"
   version="1.1"
   inkscape:version="0.92.1 r"
   sodipodi:docname="hplip.svg"
   width="51.200001"
   height="51.200001">
  <metadata
     id="metadata45">
    <rdf:RDF>
      <cc:Work
         rdf:about="">
        <dc:format>image/svg+xml</dc:format>
        <dc:type
           rdf:resource="http://purl.org/dc/dcmitype/StillImage" />
      </cc:Work>
    </rdf:RDF>
  </metadata>
  <sodipodi:namedview
     pagecolor="#ffffff"
     bordercolor="#666666"
     borderopacity="1"
     objecttolerance="10"
     gridtolerance="10"
     guidetolerance="10"
     inkscape:pageopacity="0"
     inkscape:pageshadow="2"
     inkscape:window-width="819"
     inkscape:window-height="480"
     id="namedview43"
     showgrid="false"
     inkscape:zoom="4.9166667"
     inkscape:cx="24"
     inkscape:cy="24"
     inkscape:window-x="66"
     inkscape:window-y="31"
     inkscape:window-maximized="0"
     inkscape:current-layer="g19" />
  <defs
     id="defs4">
    <linearGradient
       id="linearGradient3764"
       x1="1"
       x2="47"
       gradientUnits="userSpaceOnUse"
       gradientTransform="rotate(-90,23.999998,24)">
      <stop
         style="stop-color:#015093;stop-opacity:1"
         id="stop7" />
      <stop
         offset="1"
         style="stop-color:#015ca7;stop-opacity:1"
         id="stop9" />
    </linearGradient>
  </defs>
  <g
     id="g11">
    <path
       d="m 36.31,5 c 5.859,4.062 9.688,10.831 9.688,18.5 0,12.426 -10.07,22.5 -22.5,22.5 -7.669,0 -14.438,-3.828 -18.5,-9.688 1.037,1.822 2.306,3.499 3.781,4.969 4.085,3.712 9.514,5.969 15.469,5.969 12.703,0 23,-10.298 23,-23 0,-5.954 -2.256,-11.384 -5.969,-15.469 C 39.81,7.306 38.132,6.037 36.31,5 Z m 4.969,3.781 c 3.854,4.113 6.219,9.637 6.219,15.719 0,12.703 -10.297,23 -23,23 -6.081,0 -11.606,-2.364 -15.719,-6.219 4.16,4.144 9.883,6.719 16.219,6.719 12.703,0 23,-10.298 23,-23 0,-6.335 -2.575,-12.06 -6.719,-16.219 z"
       style="opacity:0.05"
       id="path13"
       inkscape:connector-curvature="0" />
    <path
       d="m 41.28,8.781 c 3.712,4.085 5.969,9.514 5.969,15.469 0,12.703 -10.297,23 -23,23 -5.954,0 -11.384,-2.256 -15.469,-5.969 4.113,3.854 9.637,6.219 15.719,6.219 12.703,0 23,-10.298 23,-23 0,-6.081 -2.364,-11.606 -6.219,-15.719 z"
       style="opacity:0.1"
       id="path15"
       inkscape:connector-curvature="0" />
    <path
       d="M 31.25,2.375 C 39.865,5.529 46,13.792 46,23.505 c 0,12.426 -10.07,22.5 -22.5,22.5 -9.708,0 -17.971,-6.135 -21.12,-14.75 a 23,23 0 0 0 44.875,-7 23,23 0 0 0 -16,-21.875 z"
       style="opacity:0.2"
       id="path17"
       inkscape:connector-curvature="0" />
  </g>
  <g
     id="g19">
    <path
       d="M 24,1 C 36.703,1 47,11.297 47,24 47,36.703 36.703,47 24,47 11.297,47 1,36.703 1,24 1,11.297 11.297,1 24,1 Z"
       style="fill:#ececec;fill-opacity:1"
       id="path21"
       inkscape:connector-curvature="0" />
    <path
       d="M 24,1 C 22.721,1 21.47,1.11 20.248,1.311 L 9,34 h 4.273 L 18.73,18 h 2.96 l -5.381,16 h 4.296 L 25.689,19.102 C 26.429,16.96 25.264,15 23.101,15 H 19.773 L 24.666,1.016 C 24.444,1.01 24.223,1 24,1 m 6.287,14 -10.834,31.549 c 1.355,0.272 2.752,0.419 4.182,0.441 L 28.121,34 h 5.674 c 1.01,0 2.112,-0.813 2.457,-1.811 l 4.525,-13.09 c 0.74,-2.142 -0.426,-4.102 -2.592,-4.102 m -4.672,3 h 3.221 l -4.469,13 h -3.221 z"
       style="opacity:0.1;fill:#000000;fill-opacity:1"
       id="path23"
       inkscape:connector-curvature="0" />
    <path
       d="M 23.314,1.018 C 21.767,1.063 20.26,1.26 18.804,1.596 L 7.999,33 h 4.273 l 5.457,-16 h 2.96 l -5.381,16 h 4.296 L 24.688,18.102 C 25.428,15.96 24.263,14 22.1,14 H 18.772 Z M 29.287,14 18.207,46.26 c 1.325,0.344 2.697,0.566 4.104,0.668 l 4.811,-13.932 h 5.674 c 1.01,0 2.112,-0.813 2.457,-1.811 l 4.525,-13.09 c 0.74,-2.142 -0.426,-4.102 -2.592,-4.102 m -4.672,3 h 3.221 l -4.469,13 h -3.221 z"
       style="fill:#4a76ff;fill-opacity:1"
       id="path25"
       inkscape:connector-curvature="0" />
  </g>
  <g
     id="g27">
    <g
       id="g29">
      <g
         transform="translate(1,1)"
         id="g31">
        <g
           style="opacity:0.1"
           id="g33">
          <!-- color: #015ca7 -->
        </g>
      </g>
    </g>
  </g>
  <g
     id="g35">
    <g
       id="g37">
      <!-- color: #015ca7 -->
    </g>
  </g>
  <g
     id="g39">
    <path
       d="m 40.03,7.531 c 3.712,4.084 5.969,9.514 5.969,15.469 0,12.703 -10.297,23 -23,23 C 17.045,46 11.615,43.744 7.53,40.031 11.708,44.322 17.54,47 23.999,47 c 12.703,0 23,-10.298 23,-23 0,-6.462 -2.677,-12.291 -6.969,-16.469 z"
       style="opacity:0.1"
       id="path41"
       inkscape:connector-curvature="0" />
  </g>
</svg>
